src/Icon/svgs/MessageOutline.svg

<svg width="24" height="24" viewBox="0 0 24 24" fill="none" xmlns="http://www.w3.org/2000/svg">
<path fill-rule="evenodd" clip-rule="evenodd" d="M4 4H20C21.1046 4 22 4.89543 22 6V18C22 19.1046 21.1046 20 20 20H4C2.89543 20 2 19.1046 2 18V6C2 4.89543 2.89543 4 4 4ZM4 6V18H20V6H4ZM7.5145 8.14251L12 10.8338L16.4855 8.14251C16.9591 7.85836 17.5733 8.01192 17.8575 8.4855C18.1416 8.95908 17.9881 9.57334 17.5145 9.85749L12.5145 12.8575C12.1978 13.0475 11.8022 13.0475 11.4855 12.8575L6.4855 9.85749C6.01192 9.57334 5.85836 8.95908 6.14251 8.4855C6.42666 8.01192 7.04092 7.85836 7.5145 8.14251Z" fill="#1B1C1D"/>
</svg>

<svg xmlns="http://www.w3.org/2000/svg" width="24" height="24" fill="none"><path fill-rule="evenodd" d="M4 4h16a2 2 0 0 1 2 2v12a2 2 0 0 1-2 2H4a2 2 0 0 1-2-2V6a2 2 0 0 1 2-2zm0 2v12h16V6H4zm3.515 2.143L12 10.834l4.485-2.691a1 1 0 0 1 1.029 1.715l-5 3a1 1 0 0 1-1.029 0l-5-3a1 1 0 1 1 1.029-1.715z" fill="#1B1C1D"/></svg>
